src/img/d6.svg

<?xml version="1.0" encoding="UTF-8"?>
<svg width="46px" height="43px" viewBox="0 0 46 43" version="1.1" xmlns="http://www.w3.org/2000/svg" xmlns:xlink="http://www.w3.org/1999/xlink" xmlns:cc="http://creativecommons.org/ns#">
		<!-- Generator: Sketch 53.2 (72643) - https://sketchapp.com -->
		<title>d6</title>
		<desc>Created with Sketch.</desc>
		<g id="Page-1" stroke="none" stroke-width="1" fill="none" fill-rule="evenodd">
				<g id="rpg_dice" transform="translate(-88.000000, -69.000000)" fill="#000000" fill-rule="nonzero">
						<path d="M97.9864,107.75237 L88.116109,103.67837 L88.835726,88.589185 C89.231515,80.290133 89.623145,73.428857 89.706015,73.341904 C89.788885,73.254954 94.86052,72.449318 100.97631,71.551606 L112.09593,69.919403 L122.75165,72.589475 L133.40738,75.259546 L133.13204,90.379773 L132.85669,105.5 L120.35669,108.68946 C113.48169,110.44366 107.85669,111.86709 107.85669,111.85264 C107.85669,111.83824 103.41506,109.99307 97.9864,107.75237 L97.9864,107.75237 Z M107.63367,79.935204 C107.20633,79.53989 103.19137,78.108749 98.71153,76.754891 L90.56638,74.293331 L89.844784,88.229918 C89.447908,95.89504 89.513229,102.54244 89.98994,103.00191 C90.46665,103.46138 94.68169,105.36293 99.35669,107.22757 L107.85669,110.61784 L108.13367,95.635898 C108.28601,87.39583 108.06097,80.330518 107.63367,79.935204 L107.63367,79.935204 Z M95.94998,98.82973 C92.80197,94.335313 94.72964,84.926395 98.76721,85.078947 C100.19849,85.133027 100.38418,85.326766 99.35669,85.693981 C97.52924,86.347097 95.35669,88.968572 95.35669,90.520531 C95.35669,91.14658 96.34988,91.623072 97.56378,91.579401 C101.69004,91.430957 102.61754,99.41305 98.62854,100.74272 C98.03164,100.94168 96.82629,100.08084 95.94998,98.82973 L95.94998,98.82973 Z M99.99592,98.49776 C100.89143,96.164102 99.48818,92 97.80625,92 C95.67163,92 94.89592,94.6933 96.20379,97.56377 C97.45892,100.31848 99.1385,100.73216 99.99592,98.49776 Z M121.33795,107.41622 L132.35669,104.83243 L132.35669,90.397165 L132.35669,75.961896 L130.10669,76.458141 C128.86919,76.731075 124.93169,77.429416 121.35669,78.010008 C117.78169,78.590601 113.61919,79.311619 112.10669,79.612271 L109.35669,80.158911 L109.35669,95.079455 C109.35669,103.28575 109.57326,110 109.83795,110 C110.10264,110 115.27764,108.8373 121.33795,107.41622 L121.33795,107.41622 Z M119.02714,99.12086 C121.16024,97.33944 121.16454,97.279957 119.27714,95.663913 C116.94917,93.670646 116.80283,90.696722 118.92812,88.571429 C120.74149,86.758057 122.23952,86.612978 124.35669,88.04569 C125.48823,88.811415 125.22437,88.914682 123.28249,88.466091 C118.38931,87.335725 116.54545,93.288656 121.08738,95.553053 C122.77902,96.39643 123.02429,96.932396 122.12852,97.82817 C121.23275,98.72394 121.53385,99.02348 123.40669,99.09968 L125.85669,99.19938 L123.35669,100 C121.98169,100.44035 119.95669,100.83052 118.85669,100.86705 C116.92414,100.93125 116.92989,100.87205 119.02714,99.12086 Z" id="d6"></path>
				</g>
		</g>
</svg>

<!-- Created with Inkscape (http://www.inkscape.org/) -->
<!-- License: Creative Commons -->
<svg width="46" height="43" xmlns="http://www.w3.org/2000/svg"><defs><style>*{fill:#fff}</style></defs><g id="Page-1" stroke="none" stroke-width="1" fill="none" fill-rule="evenodd"><g id="rpg_dice" transform="translate(-88 -69)" fill="#000" fill-rule="nonzero"><path d="M97.986 107.752l-9.87-4.074.72-15.089c.396-8.299.787-15.16.87-15.247.083-.087 5.155-.893 11.27-1.79l11.12-1.633 10.656 2.67 10.655 2.67-.275 15.12-.275 15.121-12.5 3.19c-6.875 1.754-12.5 3.177-12.5 3.163 0-.015-4.442-1.86-9.87-4.1zm9.648-27.817c-.428-.395-4.443-1.826-8.922-3.18l-8.146-2.462-.721 13.937c-.397 7.665-.332 14.312.145 14.772.477.46 4.692 2.36 9.367 4.226l8.5 3.39.277-14.982c.152-8.24-.073-15.305-.5-15.7zM95.95 98.83c-3.148-4.495-1.22-13.904 2.817-13.751 1.431.054 1.617.248.59.615-1.828.653-4 3.275-4 4.827 0 .626.993 1.102 2.207 1.058 4.126-.148 5.054 7.834 1.065 9.164-.597.199-1.803-.662-2.679-1.913zm4.046-.332c.895-2.334-.508-6.498-2.19-6.498-2.134 0-2.91 2.693-1.602 5.564 1.255 2.754 2.934 3.168 3.792.934zm21.342 8.918l11.019-2.584v-28.87l-2.25.496c-1.238.273-5.175.971-8.75 1.552-3.575.58-7.738 1.302-9.25 1.602l-2.75.547v14.92c0 8.207.216 14.921.481 14.921s5.44-1.163 11.5-2.584zm-2.31-8.295c2.132-1.782 2.137-1.841.25-3.457-2.329-1.993-2.475-4.967-.35-7.093 1.813-1.813 3.312-1.958 5.429-.525 1.131.765.867.869-1.075.42-4.893-1.13-6.737 4.823-2.195 7.087 1.692.843 1.937 1.38 1.042 2.275-.896.896-.595 1.195 1.278 1.272l2.45.1-2.5.8c-1.375.44-3.4.83-4.5.867-1.933.064-1.927.005.17-1.746z" id="d6"/></g></g></svg>
